public/assests/icons/snacks.svg

<svg width="22" height="29" viewBox="0 0 22 29" fill="none" xmlns="http://www.w3.org/2000/svg">
<path d="M21.0896 5.28163V1.69966C21.0859 1.53893 21.0406 1.38189 20.9581 1.24388C20.8757 1.10587 20.7588 0.991603 20.619 0.912233C20.4792 0.832863 20.3212 0.791104 20.1604 0.791031C19.9996 0.790957 19.8416 0.832573 19.7017 0.911815L18.6436 1.54851L17.5855 0.911815C17.4426 0.826902 17.2793 0.782468 17.113 0.783275C16.9468 0.784082 16.7839 0.830099 16.6419 0.916396L15.5884 1.54851L14.5303 0.916396C14.3881 0.829867 14.2249 0.784099 14.0585 0.784099C13.892 0.784099 13.7288 0.829867 13.5867 0.916396L12.5332 1.54851L11.4796 0.916396C11.3375 0.829867 11.1743 0.784099 11.0078 0.784099C10.8414 0.784099 10.6782 0.829867 10.536 0.916396L9.48253 1.54851L8.42443 0.916396C8.28195 0.830792 8.11886 0.785567 7.95264 0.785567C7.78642 0.785567 7.62333 0.830792 7.48085 0.916396L6.42733 1.54851L5.37381 0.916396C5.23165 0.829867 5.06844 0.784099 4.90202 0.784099C4.7356 0.784099 4.57238 0.829867 4.43022 0.916396L3.3767 1.54851L2.32319 0.916396C2.18387 0.835765 2.02592 0.792893 1.86496 0.79202C1.70399 0.791146 1.54559 0.8323 1.40541 0.911413C1.26522 0.990527 1.14812 1.10486 1.06566 1.24311C0.983214 1.38135 0.938275 1.53872 0.93529 1.69966V5.28163C-0.27856 11.3842 -0.27856 17.666 0.93529 23.7686V27.3505C0.938958 27.5113 0.984239 27.6683 1.06672 27.8063C1.14919 27.9443 1.26604 28.0586 1.40586 28.138C1.54568 28.2174 1.70369 28.2591 1.86447 28.2592C2.02525 28.2593 2.18329 28.2176 2.32319 28.1384L3.38129 27.5017L4.43938 28.1384C4.58228 28.2233 4.74559 28.2677 4.91181 28.2669C5.07803 28.2661 5.2409 28.2201 5.38297 28.1338L6.43649 27.5017L7.49459 28.1338C7.63674 28.2203 7.79996 28.2661 7.96638 28.2661C8.1328 28.2661 8.29602 28.2203 8.43817 28.1338L9.49169 27.5017L10.5452 28.1338C10.6874 28.2203 10.8506 28.2661 11.017 28.2661C11.1834 28.2661 11.3466 28.2203 11.4888 28.1338L12.5423 27.5017L13.6004 28.1338C13.7429 28.2194 13.906 28.2646 14.0722 28.2646C14.2384 28.2646 14.4015 28.2194 14.544 28.1338L15.5975 27.5017L16.651 28.1338C16.7932 28.2203 16.9564 28.2661 17.1228 28.2661C17.2893 28.2661 17.4525 28.2203 17.5946 28.1338L18.6481 27.5017L19.7017 28.1338C19.8411 28.2139 19.9989 28.2563 20.1597 28.2569C20.3204 28.2575 20.4786 28.2163 20.6186 28.1373C20.7586 28.0583 20.8756 27.9442 20.9582 27.8062C21.0408 27.6683 21.086 27.5113 21.0896 27.3505V23.7686C22.3034 17.666 22.3034 11.3842 21.0896 5.28163ZM2.7675 3.31659L2.90491 3.39903C3.04707 3.48556 3.21028 3.53133 3.3767 3.53133C3.54313 3.53133 3.70634 3.48556 3.8485 3.39903L4.90202 2.76692L5.95553 3.39903C6.09769 3.48556 6.26091 3.53133 6.42733 3.53133C6.59375 3.53133 6.75696 3.48556 6.89912 3.39903L7.95264 2.76692L9.01074 3.39903C9.15322 3.48464 9.31631 3.52986 9.48253 3.52986C9.64875 3.52986 9.81184 3.48464 9.95433 3.39903L11.0078 2.76692L12.0614 3.39903C12.2035 3.48556 12.3667 3.53133 12.5332 3.53133C12.6996 3.53133 12.8628 3.48556 13.0049 3.39903L14.0585 2.76692L15.1166 3.39903C15.2587 3.48577 15.4219 3.53173 15.5884 3.53187C15.7547 3.53052 15.9176 3.48465 16.0602 3.39903L17.1137 2.76692L18.1718 3.40362C18.3151 3.48688 18.4778 3.53074 18.6436 3.53074C18.8093 3.53074 18.9721 3.48688 19.1154 3.40362L19.2574 3.31659V4.44797H2.7675V3.31659ZM19.2574 25.7336L19.1199 25.6512C18.9778 25.5647 18.8146 25.5189 18.6481 25.5189C18.4817 25.5189 18.3185 25.5647 18.1763 25.6512L17.1228 26.2833L16.0693 25.6512C15.9272 25.5647 15.7639 25.5189 15.5975 25.5189C15.4311 25.5189 15.2679 25.5647 15.1257 25.6512L14.0722 26.2833L13.0141 25.6512C12.8716 25.5656 12.7085 25.5203 12.5423 25.5203C12.3761 25.5203 12.213 25.5656 12.0705 25.6512L11.017 26.2833L9.96349 25.6512C9.82133 25.5647 9.65811 25.5189 9.49169 25.5189C9.32527 25.5189 9.16206 25.5647 9.0199 25.6512L7.96638 26.2833L6.90828 25.6512C6.7658 25.5656 6.60271 25.5203 6.43649 25.5203C6.27027 25.5203 6.10718 25.5656 5.9647 25.6512L4.91118 26.2833L3.85308 25.6466C3.70979 25.5633 3.54701 25.5195 3.38129 25.5195C3.21556 25.5195 3.05278 25.5633 2.90949 25.6466L2.7675 25.7336V24.6022H19.2574V25.7336ZM19.4177 22.77H2.60718C1.60404 17.3192 1.60404 11.731 2.60718 6.28018H19.4177C20.4208 11.731 20.4208 17.3192 19.4177 22.77Z" fill="#FFB577"/>
<path d="M15.0753 11.8272C14.8069 11.5234 14.477 11.2801 14.1074 11.1135C13.7378 10.9468 13.3371 10.8607 12.9316 10.8608H12.5011C12.3086 10.8635 12.1168 10.8849 11.9285 10.9249V9.4866C11.9285 9.24363 11.832 9.01062 11.6602 8.83882C11.4884 8.66701 11.2554 8.5705 11.0124 8.5705C10.7694 8.5705 10.5364 8.66701 10.3646 8.83882C10.1928 9.01062 10.0963 9.24363 10.0963 9.4866V10.9249C9.90799 10.8849 9.71623 10.8635 9.52374 10.8608H9.09317C8.68754 10.8609 8.28657 10.9473 7.91683 11.1141C7.54709 11.2809 7.21703 11.5244 6.94851 11.8285C6.67999 12.1325 6.47914 12.4901 6.35928 12.8776C6.23942 13.2652 6.20328 13.6737 6.25326 14.0763L6.68382 17.5162C6.77169 18.2077 7.10848 18.8435 7.63118 19.3047C8.15388 19.7658 8.82669 20.0208 9.52374 20.0218C10.0499 20.0211 10.5655 19.8735 11.0124 19.5958C11.4593 19.8735 11.9749 20.0211 12.5011 20.0218C13.1981 20.0208 13.8709 19.7658 14.3936 19.3047C14.9163 18.8435 15.2531 18.2077 15.341 17.5162L15.7716 14.0763C15.8212 13.6735 15.7849 13.2647 15.6648 12.877C15.5448 12.4893 15.3439 12.1315 15.0753 11.8272ZM13.9531 13.8518L13.5225 17.2872C13.4908 17.536 13.3697 17.7647 13.1818 17.9308C12.9938 18.0968 12.7519 18.1888 12.5011 18.1896C12.3509 18.1884 12.2029 18.1541 12.0675 18.0891C11.9322 18.0242 11.8128 17.9303 11.7178 17.814C11.6315 17.7107 11.5236 17.6277 11.4018 17.5707C11.2799 17.5137 11.147 17.4842 11.0124 17.4842C10.8779 17.4842 10.745 17.5137 10.6231 17.5707C10.5012 17.6277 10.3933 17.7107 10.307 17.814C10.2121 17.9303 10.0927 18.0242 9.95727 18.0891C9.8219 18.1541 9.67388 18.1884 9.52374 18.1896C9.27295 18.1888 9.03101 18.0968 8.84306 17.9308C8.65511 17.7647 8.53398 17.536 8.50229 17.2872L8.07172 13.8518C8.05392 13.707 8.06702 13.56 8.11017 13.4205C8.15332 13.2811 8.22553 13.1524 8.32205 13.0429C8.41856 12.9334 8.53719 12.8456 8.6701 12.7853C8.80302 12.7249 8.94721 12.6935 9.09317 12.693H9.52374C9.67388 12.6942 9.8219 12.7285 9.95727 12.7934C10.0927 12.8583 10.2121 12.9523 10.307 13.0686C10.3963 13.167 10.5052 13.2456 10.6266 13.2995C10.7481 13.3533 10.8795 13.3811 11.0124 13.3811C11.1453 13.3811 11.2767 13.3533 11.3982 13.2995C11.5197 13.2456 11.6285 13.167 11.7178 13.0686C11.8128 12.9523 11.9322 12.8583 12.0675 12.7934C12.2029 12.7285 12.3509 12.6942 12.5011 12.693H12.9316C13.0776 12.6935 13.2218 12.7249 13.3547 12.7853C13.4876 12.8456 13.6063 12.9334 13.7028 13.0429C13.7993 13.1524 13.8715 13.2811 13.9146 13.4205C13.9578 13.56 13.9709 13.707 13.9531 13.8518Z" fill="#FFB577"/>
</svg>

<svg width="22" height="29" fill="none" xmlns="http://www.w3.org/2000/svg"><path d="M21.0896 5.2816v-3.582a.93.93 0 0 0-1.3879-.7878l-1.0581.6367-1.0581-.6367a.9162.9162 0 0 0-.9436.0046l-1.0535.6321-1.0581-.6321a.9076.9076 0 0 0-.9436 0l-1.0535.6321-1.0536-.6321a.907.907 0 0 0-.9436 0l-1.0535.6321-1.058-.6321a.916.916 0 0 0-.9436 0l-1.0536.6321L5.3738.9164a.9074.9074 0 0 0-.9436 0l-1.0535.6321L2.3232.9164a.9248.9248 0 0 0-1.388.7833v3.582a47.3814 47.3814 0 0 0 0 18.4869v3.5819a.9296.9296 0 0 0 .9293.9087.93.93 0 0 0 .4587-.1208l1.058-.6367 1.0582.6367a.9163.9163 0 0 0 .9436-.0046l1.0535-.6321 1.058.6321a.9076.9076 0 0 0 .9437 0l1.0535-.6321 1.0535.6321a.9079.9079 0 0 0 .9436 0l1.0535-.6321 1.0581.6321a.9162.9162 0 0 0 .9436 0l1.0535-.6321 1.0535.6321a.9079.9079 0 0 0 .9436 0l1.0535-.6321 1.0536.6321a.926.926 0 0 0 .9169.0035.9264.9264 0 0 0 .471-.7868v-3.5819a47.3833 47.3833 0 0 0 0-18.487ZM2.7675 3.3166l.1374.0824a.9074.9074 0 0 0 .9436 0l1.0535-.632 1.0535.632a.9074.9074 0 0 0 .9436 0l1.0535-.632 1.0581.632a.916.916 0 0 0 .9436 0l1.0535-.632 1.0536.632a.907.907 0 0 0 .9435 0l1.0536-.632 1.0581.632a.907.907 0 0 0 .4718.1329.9312.9312 0 0 0 .4718-.1329l1.0535-.632 1.0581.6366a.939.939 0 0 0 .9436 0l.142-.087V4.448H2.7675V3.3166Zm16.4899 22.417-.1375-.0824a.9073.9073 0 0 0-.9436 0l-1.0535.6321-1.0535-.6321a.9076.9076 0 0 0-.9436 0l-1.0535.6321-1.0581-.6321a.9163.9163 0 0 0-.9436 0l-1.0535.6321-1.0535-.6321a.9077.9077 0 0 0-.9436 0l-1.0535.6321-1.0581-.6321a.9162.9162 0 0 0-.9436 0l-1.0535.6321-1.0581-.6367a.9387.9387 0 0 0-.9436 0l-.142.087v-1.1314h16.4899v1.1314Zm.1603-2.9636H2.6072a45.5533 45.5533 0 0 1 0-16.4898h16.8105a45.5551 45.5551 0 0 1 0 16.4898Z" fill="#FFB577"/><path d="M15.0753 11.8272a2.8596 2.8596 0 0 0-2.1437-.9664h-.4305a2.9552 2.9552 0 0 0-.5726.0641V9.4866a.916.916 0 1 0-1.8322 0v1.4383a2.955 2.955 0 0 0-.5726-.0641h-.4305a2.8624 2.8624 0 0 0-2.734 2.0168 2.863 2.863 0 0 0-.106 1.1987l.4306 3.4399a2.8672 2.8672 0 0 0 2.84 2.5056 2.8279 2.8279 0 0 0 1.4886-.426 2.828 2.828 0 0 0 1.4887.426 2.8671 2.8671 0 0 0 2.8399-2.5056l.4306-3.4399a2.8684 2.8684 0 0 0-.6963-2.2491Zm-1.1222 2.0246-.4306 3.4354a1.0333 1.0333 0 0 1-.3407.6436c-.188.166-.4299.258-.6807.2588a1.0226 1.0226 0 0 1-.7833-.3756.9196.9196 0 0 0-.7054-.3298.919.919 0 0 0-.7054.3298 1.0205 1.0205 0 0 1-.3497.2751 1.0204 1.0204 0 0 1-.4336.1005 1.0333 1.0333 0 0 1-1.0214-.9024l-.4306-3.4354a1.033 1.033 0 0 1 1.0215-1.1588h.4305a1.0217 1.0217 0 0 1 .7833.3756.9528.9528 0 0 0 1.4108 0 1.022 1.022 0 0 1 .7833-.3756h.4305a1.0329 1.0329 0 0 1 1.0215 1.1588Z" fill="#FFB577"/></svg>
